X:133
T:North Country Lass, The
M:6/8
L:1/8
B:Thompson's Compleat Collection of 200 Favourite Country Dances, vol. 3 (London, 1773)
Z:Transcribed and edited by Flynn Titford-Mock, 2007
Z:abc's:AK/Fiddler's Companion
K:D
a | a>bg f>ge | d>cd ecA | A>BA A>BA | d>ef e2a | a>bg f>ge | d>cd ecA | ABc dgf | edc d3 :|
|: d2g b3 | d2f afd | dgb bag | dfa afd | gab gfe | fga fed | Bgb a>bg | f>ge d3 :|

